!!!OTL: De sublimi arce poli
**kern
*staff1
=1-
*clefC4
*k[b-]
*met(c|)
*M2/2
1F
1F
=2
1A
1c
=3
1c
1d
=4
1c
1F
=5
1B-
2B-\
2G/
!!linebreak:original
=6
1B-
1d
=7
1c
1d
=8
1c
1F
=9
1B-
1B-
=10
1.A
2G/
=11
1F
1E
=12
0F
==
*-
!!title: @{OTL}, @{GTL}, ed. @{ENC}
!!!pag:
!!!GTL: Hymnbook D
!!!EFL: 
!!!YEM: Creative Commons CC/BY/NC/SA 4.0
!!!ENC: Marcin Konik
!!!END: 2015-0m-dd
!!!EED: Marcin Konik
!!!EEV: 
!!!ONB: Encoded in vim by Marcin Konik
!!!CharacterEncoding: utf-8
!!!RDF**kern: l=long note in original notation
!!!RDF**kern: i=editorial accidental
!!muse2ps: z14jc180F
!!!COM: Anonim
!!!CDT: [?]
!!!TXO: Polish
!!!ODT: 
!!!GTL: Hymnbook D
!!!ARL: Opactwo św. Wojciecha, Staniątki 
!!!voices:	1
